X:254
T:Fill the Stoup
R:Reel
B:The Athole Collection
M:C|
L:1/8
K:A
a|e2c2 eAAa|e2c2 fBBa|e2c2 eAcA|dfce fBB:|
|:a|eAcA eAAf|eAcA fBBa|eAcA eAcA|dfce fBB:|
|:f|eaca eAAf|eace fBBa|eaca eace|dfce fBB:|
|:a|eAcA eAAa|eAcA fBBa|eAcA eAcA|dfce fBB:|

